X:1
T:La Fanciulla del West, Act 3: Ch'ella mi creda libero e lontano
T:Ch'ella mi creda libero e lontano
T:Giacomo Puccini
T:La Fanciulla del West, Act 3
C:Giacomo Puccini
%%score 1 { ( 2 3 ) | ( 4 5 ) }
L:1/8
Q:1/4=40
M:4/4
K:Gb
V:1 treble nm="Canto"
V:2 treble nm="Pianoforte"
V:3 treble 
V:4 bass 
V:5 bass 
V:1
"^Andante molto lento" (G2 G A B2 B2 | c B A G d2 d2) | (g2 e f f d e2- | e d B c d2 d2) | %4
w: Ch'el\- la mi cre\- da|li\- be\- roe lon\- ta\- no,|so\- pra~u\- na nuo\- va via|_ di re\- den\- zio\- ne!|
 (e2 c B A3 B | A G) z (G A A e e | B2-"^cresc." B) (B c c g!mf! g | %7
w: A\- spet\- te\- rà ch'io|tor\- ni e pas\- se\- ran\- no~i|gior\- ni, e pas\- se\- ran\- no~i~|
 d2-"^allarg." d)!<(! d e2 b2!<)! | a g e g!<(! d2 e2!<)! |[M:2/4]!>(! e d"^rall." B A!>)! || %10
w: gior\- ni, ed io, ed|io non tor\- ne\- rò, ed|io non tor\- ne\-|
[M:4/4]"^a tempo" G2 z2 z4 | z4!<(! d2 d2 | g2!<)! e f (fd) e2- |!>(! e d B c d2 d2!>)! | %14
w: rò.|Min\- nie,|del\- la mia vi\- _ ta|* mio so\- lo fio\- re,|
 z4 A2 A z | z (G E G A A e e | B2 B2) (c2 g2 | d2 d2) (e2 !fermata!b2) ||[M:2/4] (a g e g) || %19
w: Min\- nie,|che n'hai vo\- lu\- to tan\- to|be\- ne, tan\- to|be\- ne! Ah! _|Tu del\- la mia|
[M:4/4] d2 e2- e (d"^poco stent." !tenuto!!fermata!B !tenuto!A | G2) z2 z4 | z9 | !fermata!z8 |] %23
w: vi\- ta _ mio so\- lo|fior!|||
V:2
 ([G,B,DG]3 [A,A] [B,B]4 | [Cc][B,B][A,A][G,G] [Dd]4) | %2
!>(! ([GBdg]2 [Ee])[FAcf]- ([FAcf][Dd] [EGBe]2-)!>)! | [EGBe][Dd][B,B][Cc]!>(! [Dd]4!>)! | %4
 ([EGce]2 [Cc][B,B]) ([A,CEA]3 [B,B]) | ([A,A][G,G])([E,E][G,G])"_cresc." ([A,CEA]2 [EGBe]2) | %6
!<(! [B,DFB]4 ([CEGc]2 [GBdg]2) |"_cresc." [DFAd]4 ([EGBe]2 [Bdfb]2)!<)! | %8
 ([Acea][GBdg])([EGBe][GBdg])!<(! ((([DG-Bd]2 [EGBe]2-)))!<)! | %9
[M:2/4]!>(! [Ee][Dd]!>)! !tenuto![B,DFB]!tenuto![A,CEA] || %10
[M:4/4]!p! ([GBdg]2 [GBdg][Aa]) !tenuto![Bfb]2 !tenuto![Bgb]2 | %11
 ([cc'][Bb][Aa][Gg])!<(!"_cresc." ([ga-]2 [fa]2)!<)! |!f! [gg']2 [ee'][ff']- [ff'][dd'] [ec']2 | %13
 [ee'][dd'][Bb][cc'] [dd']4 |!p! ([ee']2 [cegc'][Bdfb]) ([Acea]3 [Bb]) | %15
 d2 B2 ([Acea]2"_cresc." [egbe']2 |!<(! [Bdfb]4) ([cegc']2 [gbd'g']2 | %17
 [dfad']4) [egbe']2!<)!!ff! !fermata![bd'f'b']2 ||[M:2/4] [c'e']2 x2 || %19
[M:4/4]"^col canto"!<(! [dgbd']2 [egbe']2-!<)!!>(! [egbe'][dgbd']!fermata![Bdfb]!tenuto![Acea]!>)! | %20
 [DG]2!<(! [DF]2 [DF]D=D>E!<)! | [CEc]3/2[B,B][A,CEA]>[G,G]!>(! [G,=CEG]3/2FE>!>)!_D | %22
 !fermata![B,DGB]8 |] %23
V:3
 x4 [DF]2- [DF] z | x4 [FA]2- [FA] z | x8 | x4 [FA]2- [FA] z | x8 | [B,D]2 x2 z4 | x8 | x8 | x8 | %9
[M:2/4] [GB]2 x2 ||[M:4/4] x8 | [eg]2 [ce]2 [dd']4 | x8 | x8 | x8 | ([Aa][Gg])([Ee][Gg]) x4 | x8 | %17
 x8 ||[M:2/4] ([aa'][gg'][egbe'][gg']) ||[M:4/4] x8 | x8 | x9 | x8 |] %23
V:4
!pp!"^legando come organo" ([G,,,D,,G,,]3 [A,,,A,,] [B,,,B,,]4 | %1
 [C,,C,][B,,,B,,][A,,,A,,][G,,,G,,] [D,,D,]4) | %2
 ([G,,D,G,]2 [E,,E,])[F,,C,F,]- ([F,,C,F,][D,,D,] [E,,B,,E,]2-) | %3
 [E,,B,,E,][D,,D,][B,,,B,,][C,,C,] [D,,D,]4 | %4
!p!!p! ([E,,G,,C,E,]2 [C,,C,][B,,,B,,]) ([A,,,C,,E,,A,,]3 [B,,,B,,]) | %5
 ([A,,,A,,][G,,,G,,])([E,,,E,,][G,,,G,,]) ([A,,,C,,E,,A,,]2 [E,,G,,B,,E,]2) | %6
 [B,,,D,,F,,B,,]4 ([C,,E,,G,,C,]2 [G,,B,,D,G,]2) | [D,,A,,D,]4 ([E,,B,,E,]2!ff! [B,,F,B,]2) | %8
 ([A,,E,A,][G,,D,G,])([E,,B,,E,][G,,D,G,]) (([D,,G,,-B,,-D,]2 [E,,G,,B,,E,]2-)) | %9
[M:2/4] [E,,E,][D,,D,]"^rall." !tenuto![B,,,D,,F,,B,,]!tenuto![A,,,C,,E,,A,,] || %10
[M:4/4] z2 [G,B,D]2 z2 [G,B,E]2 | z2 [A,CE]2 z2 [A,DF]2 | G2 EF FD E2 | EDB,C z2 [A,DF]2 | %14
 z2 [E,A,C]2 z2 [F,A,CE]2 | z2 [G,D]2 ([A,,C,E,A,]2 [E,G,B,E]2 | %16
!ped! [B,,D,F,B,]2)"^m.d." !tenuto![D,F,B,]2 ([C,E,G,C]2!ped-up! [G,B,DG]2 | %17
!ped! [D,F,A,D]2)"^m.d." !tenuto![F,A,D]2!ped-up! ([E,G,B,E]2[K:treble] !fermata![B,DFB]2) || %18
[M:2/4] ([A,A][A,G][K:bass][E,G,B,E][G,G]) || %19
[M:4/4] [D,G,B,D]2 [E,G,B,E]2- [E,G,B,E][D,D][B,,D,F,B,][A,,C,E,A,] | %20
!p! [G,B,]2 [F,B,]2!ff! [F,B,]D,[=D,B,]>E, | (!///-!A,,,2 A,,2) x x F, [F,_C]2 | %22
!p! [G,,,D,,G,,]8 |] %23
V:5
 x4 F,,2- F,, z | x4 A,,2- A,, z | x8 | x4 A,,2- A,, z | x8 | x4 z4 | x8 | x8 | x8 | %9
[M:2/4] [G,,B,,]2 x2 ||[M:4/4]{/G,,,} G,,4 E,,4 |{/A,,,} A,,4{/D,,} D,4 |{/B,,} [B,D]4 [A,C]4 | %13
 [G,B,]2 [E,G,]2{/D,,} D,4 |{/C,,} C,4{/F,,,} F,,4 |{/B,,,} B,,4 x4 | x2 [B,,,F,,]2 x4 | %17
 x2 [D,,A,,]2 x2[K:treble] x2 ||[M:2/4] [CE]2[K:bass] x2 ||[M:4/4] x4 [D,,,D,,] z !fermata!z2 | %20
 (!///-!G,,,2 G,,2) (!///-!=G,,,2 =G,,2) | x9/2 [=A,,,=A,,]2 x/ [_D,,_A,,_D,]2 | x8 |] %23

